status/16/dialog-question.svg

<?xml version="1.0" encoding="UTF-8" standalone="no"?>
<svg
   xmlns:dc="http://purl.org/dc/elements/1.1/"
   xmlns:cc="http://creativecommons.org/ns#"
   xmlns:rdf="http://www.w3.org/1999/02/22-rdf-syntax-ns#"
   xmlns:svg="http://www.w3.org/2000/svg"
   xmlns="http://www.w3.org/2000/svg"
   xmlns:sodipodi="http://sodipodi.sourceforge.net/DTD/sodipodi-0.dtd"
   xmlns:inkscape="http://www.inkscape.org/namespaces/inkscape"
   height="16"
   width="16"
   id="svg2"
   version="1.1"
   inkscape:version="0.91 r13725"
   sodipodi:docname="dialog-question.svg">
  <metadata
     id="metadata9">
    <rdf:RDF>
      <cc:Work
         rdf:about="">
        <dc:format>image/svg+xml</dc:format>
        <dc:type
           rdf:resource="http://purl.org/dc/dcmitype/StillImage" />
        <dc:title></dc:title>
      </cc:Work>
    </rdf:RDF>
  </metadata>
  <defs
     id="defs7" />
  <sodipodi:namedview
     id="namedview1"
     showgrid="true"
     inkscape:zoom="29.5"
     inkscape:cx="6.6271602"
     inkscape:cy="8.6543432"
     inkscape:window-width="1280"
     inkscape:window-height="766"
     inkscape:window-x="1680"
     inkscape:window-y="250"
     inkscape:window-maximized="1"
     inkscape:current-layer="text4139">
    <inkscape:grid
       type="xygrid"
       id="grid1px"
       empspacing="4" />
    <inkscape:grid
       type="xygrid"
       id="grid1pxdot"
       empspacing="1"
       dotted="true"
       originy="0.5"
       originx="0.5" />
  </sodipodi:namedview>
  <circle
     style="opacity:0.98999999;fill:none;fill-opacity:1;fill-rule:nonzero;stroke:#000000;stroke-width:1;stroke-linecap:round;stroke-linejoin:round;stroke-miterlimit:4;stroke-dasharray:none;stroke-opacity:1"
     id="path4137"
     cx="8"
     cy="8"
     r="6.5" />
  <g
     style="font-style:normal;font-weight:normal;font-size:12.01390553px;line-height:125%;font-family:sans-serif;letter-spacing:0px;word-spacing:0px;fill:#000000;fill-opacity:1;stroke:none;stroke-width:1px;stroke-linecap:butt;stroke-linejoin:miter;stroke-opacity:1"
     id="text4139">
    <path
       d="m 8.0247785,3.7350635 q 0.7809039,0 1.3936131,0.3003477 0.6247234,0.2883337 0.9731264,0.8169455 0.360417,0.516598 0.360417,1.153335 0,0.4805562 -0.168195,0.8529873 Q 10.42756,7.2190961 10.187282,7.483402 9.9590173,7.7356941 9.5745723,8.0600695 9.0579744,8.504584 8.8056824,8.8529873 8.5533904,9.2013905 8.5533904,9.7179885 l 0,0.1681947 q 0,0.1321528 -0.096111,0.2282638 -0.096111,0.09611 -0.2282642,0.09611 l -0.4445145,0 q -0.1321529,0 -0.2282642,-0.09611 -0.096111,-0.09611 -0.096111,-0.2282638 l 0,-0.2522921 q 0,-0.4805562 0.1681946,-0.8409733 Q 7.7965143,8.4204867 8.0247785,8.1681947 8.2650566,7.9159026 8.6615155,7.5554855 9.1660996,7.1229849 9.4063777,6.7986094 q 0.252292,-0.3363893 0.252292,-0.7929177 0,-0.5766675 -0.4805562,-0.9130569 -0.4805563,-0.3363893 -1.153335,-0.3363893 -0.6487509,0 -1.0812515,0.3243754 Q 6.5110264,5.4049964 6.3428318,6.0777751 6.3188039,6.1979142 6.2226927,6.2699976 6.1385954,6.342081 6.0304702,6.342081 l -0.5165979,0 q -0.1081252,0 -0.1922225,-0.072083 Q 5.2375524,6.1859003 5.2495664,6.0777751 5.2856081,5.5131215 5.5979696,4.9724958 5.9223451,4.43187 6.5350542,4.0834668 7.1597773,3.7350635 8.0247785,3.7350635 Z m 0.6487509,8.2054975 q 0,0.132153 -0.096111,0.228264 -0.096111,0.09611 -0.2282642,0.09611 l -0.6847926,0 q -0.132153,0 -0.2282642,-0.09611 -0.096111,-0.09611 -0.096111,-0.228264 l 0,-0.684793 q 0,-0.132153 0.096111,-0.228264 0.096111,-0.09611 0.2282642,-0.09611 l 0.6847926,0 q 0.1321529,0 0.2282642,0.09611 0.096111,0.09611 0.096111,0.228264 l 0,0.684793 z"
       style="font-style:normal;font-variant:normal;font-weight:normal;font-stretch:normal;font-family:Contemporary;-inkscape-font-specification:Contemporary"
       id="path4144" />
  </g>
</svg>

<?xml version="1.0" encoding="UTF-8" standalone="no"?>
<svg
   xmlns:dc="http://purl.org/dc/elements/1.1/"
   xmlns:cc="http://creativecommons.org/ns#"
   xmlns:rdf="http://www.w3.org/1999/02/22-rdf-syntax-ns#"
   xmlns:svg="http://www.w3.org/2000/svg"
   xmlns="http://www.w3.org/2000/svg"
   xmlns:sodipodi="http://sodipodi.sourceforge.net/DTD/sodipodi-0.dtd"
   xmlns:inkscape="http://www.inkscape.org/namespaces/inkscape"
   height="16"
   width="16"
   id="svg2"
   version="1.1"
   inkscape:version="0.92.1 r"
   sodipodi:docname="dialog-question.svg">
  <metadata
     id="metadata9">
    <rdf:RDF>
      <cc:Work
         rdf:about="">
        <dc:format>image/svg+xml</dc:format>
        <dc:type
           rdf:resource="http://purl.org/dc/dcmitype/StillImage" />
        <dc:title></dc:title>
      </cc:Work>
    </rdf:RDF>
  </metadata>
  <defs
     id="defs7" />
  <sodipodi:namedview
     id="namedview1"
     showgrid="true"
     inkscape:zoom="29.5"
     inkscape:cx="5.0847873"
     inkscape:cy="8.6543432"
     inkscape:window-width="1280"
     inkscape:window-height="742"
     inkscape:window-x="0"
     inkscape:window-y="24"
     inkscape:window-maximized="1"
     inkscape:current-layer="svg2">
    <inkscape:grid
       type="xygrid"
       id="grid1px"
       empspacing="4" />
    <inkscape:grid
       type="xygrid"
       id="grid1pxdot"
       empspacing="1"
       dotted="true"
       originy="0.5"
       originx="0.5" />
  </sodipodi:namedview>
  <path
     style="opacity:0.98999999;fill:#000000;fill-opacity:1;fill-rule:nonzero;stroke:none;stroke-width:1;stroke-linecap:round;stroke-linejoin:round;stroke-miterlimit:4;stroke-dasharray:none;stroke-dashoffset:0;stroke-opacity:1;paint-order:fill markers stroke"
     d="M 8 1 A 7 7 0 0 0 1 8 A 7 7 0 0 0 8 15 A 7 7 0 0 0 15 8 A 7 7 0 0 0 8 1 z M 8.0253906 3.734375 C 8.5459932 3.734375 9.0094959 3.8349245 9.4179688 4.0351562 C 9.834451 4.2273787 10.158356 4.4991546 10.390625 4.8515625 C 10.630903 5.1959612 10.751953 5.581368 10.751953 6.0058594 C 10.751953 6.3262302 10.696114 6.6110876 10.583984 6.859375 C 10.479864 7.0996531 10.347685 7.3081711 10.1875 7.484375 C 10.035324 7.6525697 9.8305154 7.8442966 9.5742188 8.0605469 C 9.2298202 8.3568899 8.9748353 8.6212468 8.8066406 8.8535156 C 8.638446 9.0857844 8.5527344 9.3743513 8.5527344 9.71875 L 8.5527344 9.8867188 C 8.5527344 9.9748206 8.5211053 10.05116 8.4570312 10.115234 C 8.3929573 10.179308 8.3166178 10.210938 8.2285156 10.210938 L 7.7851562 10.210938 C 7.6970543 10.210938 7.6207148 10.179308 7.5566406 10.115234 C 7.4925666 10.051161 7.4609375 9.9748213 7.4609375 9.8867188 L 7.4609375 9.6347656 C 7.4609375 9.3143948 7.5167765 9.0332468 7.6289062 8.7929688 C 7.7410357 8.5446814 7.8732145 8.3361634 8.0253906 8.1679688 C 8.185576 7.999774 8.3978034 7.7949656 8.6621094 7.5546875 C 8.9984988 7.2663538 9.2460646 7.0150785 9.40625 6.7988281 C 9.5744447 6.5745686 9.6582031 6.3102116 9.6582031 6.0058594 C 9.6582031 5.6214144 9.4981052 5.3160565 9.1777344 5.0917969 C 8.8573635 4.8675373 8.4739098 4.7558594 8.0253906 4.7558594 C 7.59289 4.7558594 7.2316931 4.8638279 6.9433594 5.0800781 C 6.6550256 5.2963285 6.4558797 5.6296059 6.34375 6.078125 C 6.3277314 6.1582177 6.2867304 6.2214757 6.2226562 6.2695312 C 6.1665914 6.3175869 6.1033335 6.3417969 6.03125 6.3417969 L 5.5136719 6.3417969 C 5.4415884 6.3417969 5.3783305 6.3175866 5.3222656 6.2695312 C 5.2662007 6.2134661 5.2419907 6.1502085 5.25 6.078125 C 5.2740278 5.7016893 5.3894153 5.3330734 5.5976562 4.9726562 C 5.8139066 4.612239 6.1266835 4.3162532 6.5351562 4.0839844 C 6.9516383 3.8517155 7.4487232 3.734375 8.0253906 3.734375 z M 7.6640625 10.931641 L 8.3496094 10.931641 C 8.4377113 10.931641 8.5140508 10.96327 8.578125 11.027344 C 8.642199 11.091417 8.6738281 11.167757 8.6738281 11.255859 L 8.6738281 11.941406 C 8.6738281 12.029508 8.642199 12.103895 8.578125 12.167969 C 8.514051 12.232042 8.4377115 12.265625 8.3496094 12.265625 L 7.6640625 12.265625 C 7.5759605 12.265625 7.499621 12.232042 7.4355469 12.167969 C 7.3714729 12.103895 7.3398437 12.029509 7.3398438 11.941406 L 7.3398438 11.255859 C 7.3398438 11.167757 7.3714729 11.091418 7.4355469 11.027344 C 7.4996209 10.96327 7.5759604 10.931641 7.6640625 10.931641 z "
     id="path819" />
</svg>
